material/.icons/material/ipod.svg

<svg xmlns="http://www.w3.org/2000/svg" viewBox="0 0 24 24"><path d="M7 2a2 2 0 00-2 2v16a2 2 0 002 2h10a2 2 0 002-2V4a2 2 0 00-2-2H7m0 2h10v6H7V4m5 8a4 4 0 014 4 4 4 0 01-4 4 4 4 0 01-4-4 4 4 0 014-4m0 2a2 2 0 00-2 2 2 2 0 002 2 2 2 0 002-2 2 2 0 00-2-2z"/></svg>

<?xml version="1.0" encoding="UTF-8"?><!DOCTYPE svg PUBLIC "-//W3C//DTD SVG 1.1//EN" "http://www.w3.org/Graphics/SVG/1.1/DTD/svg11.dtd"><svg xmlns="http://www.w3.org/2000/svg" xmlns:xlink="http://www.w3.org/1999/xlink" version="1.1" id="mdi-ipod" width="24" height="24" viewBox="0 0 24 24"><path d="M7,2A2,2 0 0,0 5,4V20A2,2 0 0,0 7,22H17A2,2 0 0,0 19,20V4A2,2 0 0,0 17,2H7M7,4H17V10H7V4M12,12A4,4 0 0,1 16,16A4,4 0 0,1 12,20A4,4 0 0,1 8,16A4,4 0 0,1 12,12M12,14A2,2 0 0,0 10,16A2,2 0 0,0 12,18A2,2 0 0,0 14,16A2,2 0 0,0 12,14Z" /></svg>
